X: 9201
T: Damo's
R: slip jig
M: 9/8
K: Dminor
DFD ADF DAD|~A3 AGF ECG|DFD ADF DAD|~c3 cBA GFE|
DFD ADF DAD|~A3 AGF ECG|DFD ADF DAD|~c3 cBA G3||
~D3 DEF ECG|~F3 FGA B2 G|~A2 F FGF ECG|~F3 FGF EDC|
~D3 DEF ECG|~F3 FGA B2 G|~A2 F FGF ECG|~F3 FGF EDC||

